!!!ONB: MCCC : IFC0050_01 : Extracted Monophonic Melody
!!!COM: Chopin, Frédéric
!!!OPR: Mazurkas
!!!OMV: 1
!!!SCT: Op.24
!!!ODT: 1834///
**kern
*thru
*staff1
*Ipiano
*>A
*clefG2
*k[f#c#g#]
*f#:
*M3/4
*MM132
4f#[
=1
12f#]
12g#
12f#
8e#
8f#
8.g#
16d
=2
8c#
16r
16f#
4a
4a[
=3
12a]
12b
12a
8g#
8a
8.b
16f#
=4
8e
16r
16a
4cc#
[4cc#
=5
12cc#]
12dd#
12cc#
8b#
16r
16g#
4b[
=6
12b]
12cc#
12b
8a#
16r
16f#
4a[
=7
12a]
12b
12a
8g#
16r
16e
4g[
=8
12g]
12a
12g
8f#
8d
[4f#
=9
12f#]
12g#
12f#
8e#
8f#
8.g#
16d
=10
8c#
16r
16f#
4a
[4a
=11
12a]
12b
12a
8g#
8a
8.b
16f#
=12
8e
16r
16a
4cc#
4cc#
=13
8ee
16dd
16cc#
4b
4cc#
=14
8ee
16dd
16cc#
4b
4cc#
=15
8ee
16dd
16cc#
4b
4cc#
=16
12b
12a
12g#
4f#
*>A
*M3/4
4f#[
=17
12f#]
12g#
12f#
8e#
8f#
8.g#
16d
=18
8c#
16r
16f#
4a
4a[
=19
12a]
12b
12a
8g#
8a
8.b
16f#
=20
8e
16r
16a
4cc#
[4cc#
=21
12cc#]
12dd#
12cc#
8b#
16r
16g#
4b[
=22
12b]
12cc#
12b
8a#
16r
16f#
4a[
=23
12a]
12b
12a
8g#
16r
16e
4g[
=24
12g]
12a
12g
8f#
8d
[4f#
=25
12f#]
12g#
12f#
8e#
8f#
8.g#
16d
=26
8c#
16r
16f#
4a
[4a
=27
12a]
12b
12a
8g#
8a
8.b
16f#
=28
8e
16r
16a
4cc#
4cc#
=29
8ee
16dd
16cc#
4b
4cc#
=30
8ee
16dd
16cc#
4b
4cc#
=31
8ee
16dd
16cc#
4b
4cc#
=32
12b
12a
12g#
4f#
*>B
4cc#
=33
4ccc#
8cc#
8g#
8b#
8dd
=34
8.cc#
16b#
4b
4b
=35
4ccc#
8cc#
8g#
8b#
8dd
=36
8cc#
8b#
4.gg#
8ff#
=37
4ccc#
8cc#
8g#
8b#
8dd
=38
8.cc#
16b#
4b
4b
=39
4ccc#
8cc#
8g#
8b#
8dd
=40
20%3cc#
20%3b#
20%3b
20%3.a
40%3g#
=41
12f#
12g#
12f#
8e#
8f#
8.g#
16d
=42
8c#
16r
16f#
4a
4a[
=43
12a]
12b
12a
8g#
8a
8.b
16f#
=44
8e
16r
16a
4cc#
[4cc#
=45
12cc#]
12dd#
12cc#
8b#
16r
16g#
4b[
=46
12b]
12cc#
12b
8a#
16r
16f#
4a[
=47
12a]
12b
12a
8g#
16r
16e
4g#[
=48
12g#]
12a
12g
8f#
8d
[4f#
=49
12f#]
12g#
12f#
8e#
8f#
8.g#
16d
=50
8c#
16r
16f#
4a
4a[
=51
12a]
12b
12a
8g#
8a
8.b
16f#
=52
8e
16r
16a
4cc#
4cc#
=53
8ee
16dd
16cc#
4b
4cc#
=54
8ee
16dd
16cc#
4b
4cc#
=55
8ee
16dd
16cc#
4b
4cc#
=56
12b
12a
12g#
4f#
*>B
4cc#
=57
4ccc#
8cc#
8g#
8b#
8dd
=58
8.cc#
16b#
4b
4b
=59
4ccc#
8cc#
8g#
8b#
8dd
=60
8cc#
8b#
4.gg#
8ff#
=61
4ccc#
8cc#
8g#
8b#
8dd
=62
8.cc#
16b#
4b
4b
=63
4ccc#
8cc#
8g#
8b#
8dd
=64
20%3cc#
20%3b#
20%3b
20%3.a
40%3g#
=65
12f#
12g#
12f#
8e#
8f#
8.g#
16d
=66
8c#
16r
16f#
4a
4a[
=67
12a]
12b
12a
8g#
8a
8.b
16f#
=68
8e
16r
16a
4cc#
[4cc#
=69
12cc#]
12dd#
12cc#
8b#
16r
16g#
4b[
=70
12b]
12cc#
12b
8a#
16r
16f#
4a[
=71
12a]
12b
12a
8g#
16r
16e
4g#[
=72
12g#]
12a
12g
8f#
8d
[4f#
=73
12f#]
12g#
12f#
8e#
8f#
8.g#
16d
=74
8c#
16r
16f#
4a
4a[
=75
12a]
12b
12a
8g#
8a
8.b
16f#
=76
8e
16r
16a
4cc#
4cc#
=77
8ee
16dd
16cc#
4b
4cc#
=78
8ee
16dd
16cc#
4b
4cc#
=79
8ee
16dd
16cc#
4b
4cc#
=80
12b
12a
12g#
4f#
*>C
4ccc#
=81
8ddd
8ccc#
4bb
4ddd
=82
8ccc#
8ddd
4ccc#
4fff#
=83
8ddd
8ccc#
4bb
4ddd
=84
8cccc#
8r
2cc#
=85
8gg#
8bb
4aa
4gg#
=86
8ff#
8gg#
4ff#
4ccc#
=87
8gg#
8bb
4aa
4gg#
=88
8fff#
8r
4FF#
4r
=89
8ddd
8ccc#
4bb
4ddd
=90
8ccc#
8ddd
4ccc#
4fff#
=91
8ddd
8ccc#
4bb
4ddd
=92
8ccc#
8r
2cc#
=93
8gg#
8bb
4aa
4gg#
=94
8ff#
8gg#
4ff#
4ccc#
=95
8gg#
8bb
4aa
4gg#
=96
8gg#
8gg#
4gg#
4cc#
=97
12f#
12g#
12f#
8e#
8f#
8.g#
16d
=98
8c#
16r
16f#
4a
[4a
=99
12a]
12b
12a
8g#
8a
[8.b
16b]
=100
8e
16r
16a
4cc#
[4cc#
=101
12cc#]
12dd#
12cc#
8b#
16r
16g#
4b[
=102
12b]
12cc#
12b
8a#
16r
16f#
4a[
=103
12a]
12b
12a
8g#
16r
16e
4g[
=104
12g]
12a
12g
8f#
8d
[4f#
=105
12f#]
12g#
12f#
8e#
8f#
8.g#
16d
=106
8c#
16r
16f#
4a
4a[
=107
12a]
12b
12a
8g#
8a
8.b
16f#
=108
8e
16r
16a
4cc#
4cc#
=109
8ee
16dd
16cc#
4b
4cc#
=110
8ee
16dd
16cc#
4b
4cc#
=111
8ee
16dd
16cc#
4b
4cc#
=112
12b
12a
12g#
2f#
==
*-
